X:113
T:Cecilia
C:Old Dutch
S:Colin Hume's website,  colinhume.com  - chords can also be printed below the stave.
Q:1/2=102
M:2/2
L:1/4
%%stretchstaff 0
N:For the dance by Pat Shaw
K:Am
%%MIDI program 71     Clarinet
%%MIDI chordprog 46   Orchestral Harp
%%MIDI bassprog 32    Acoustic Bass
P:A
|: E | "Am"AB cd | "/"e2 e3/^f/ | "B7"gg ^f3/e/ | "Em"e3 e | "G"dd de | "Am"cB cd | "Am/E"ed/c/ "E7"B3/A/ | "Am"A3 :|
P:B
e | "Am"aa ab | "Em"g^f ga | "B7"ba/g/ ^f3/e/ | "Em"e3 d | "C"ef ge | "F"f2 "C"e2 | "G"dd dc/B/ | "C"c3 B |
"Am"cd ec | "G"d2 d2 | "F"AB cA | "E7"B2 B2 |
"Am"AB cd | "/"e2 e3/^f/ | "B7"gg ^f3/e/ | "Em"e3 e | "G"dd de | "Am"cB cd | "Am/E"ed/c/ "E7"B3/A/ | "Am"A3 |]

